Newaita/actions/24/hint.svg

<svg height="24" viewBox="0 0 24 24" width="24" xmlns="http://www.w3.org/2000/svg"><g fill="#424242"><path d="m11.90625 6.140625c-.113281 0-.230469.003906-.34375.011719-4.410156.128906-8.191406 2.75-9.972656 6.511718-.15625.320313-.128906.699219.074218.996094.199219.292969.542969.457032.898438.425782s.667969-.253907.816406-.578126c.679688-1.4375 1.710938-2.675781 2.988282-3.601562-.265626.675781-.414063 1.414062-.414063 2.1875 0 1.664062.675781 3.160156 1.765625 4.238281l1.042969-1.808593c-.515625-.671876-.824219-1.511719-.824219-2.429688 0-2.199219 1.769531-3.96875 3.96875-3.96875.179688 0 .355469.011719.53125.035156l1.09375-1.898437c-.417969-.0625-.84375-.097657-1.277344-.109375-.113281-.007813-.230468-.011719-.347656-.011719zm4.636719.984375-1.476563 2.558594c.507813.667968.808594 1.503906.808594 2.410156 0 2.199219-1.769531 3.96875-3.96875 3.96875-.171875 0-.339844-.007812-.503906-.03125l-1.046875 1.8125c.492187.132812 1.015625.203125 1.550781.203125 3.300781 0 5.953125-2.652344 5.953125-5.953125 0-.773438-.144531-1.511719-.410156-2.1875 1.277343.925781 2.308593 2.164062 2.988281 3.601562.148438.324219.457031.546876.8125.578126s.699219-.132813.902344-.425782c.199218-.296875.226562-.675781.070312-.996094-1.164062-2.460937-3.183594-4.433593-5.679687-5.539062zm-5.292969 3.09375c-.773438.257812-1.328125.960938-1.328125 1.796875v.160156c0 .101563.007813.199219.023437.296875zm2.625 1.53125-1.277344 2.210938c.757813-.265626 1.292969-.964844 1.292969-1.785157v-.160156c0-.089844-.003906-.179687-.015625-.265625zm0 0"/><path d="m17.128906 2.5.496094.285156c.117188.066406.15625.21875.089844.339844l-10.667969 18.472656c-.066406.121094-.21875.160156-.339844.09375l-.492187-.285156c-.117188-.070312-.160156-.222656-.089844-.339844l10.667969-18.476562c.066406-.117188.21875-.160156.335937-.089844zm0 0"/></g></svg>

<?xml version="1.0" encoding="UTF-8"?>
<svg xmlns="http://www.w3.org/2000/svg" xmlns:xlink="http://www.w3.org/1999/xlink" width="24px" height="24px" viewBox="0 0 24 24" version="1.1">
<g id="surface1">
<path style=" stroke:none;fill-rule:nonzero;fill:rgb(25.882354%,25.882354%,25.882354%);fill-opacity:1;" d="M 11.90625 6.140625 C 11.792969 6.140625 11.675781 6.144531 11.5625 6.152344 C 7.152344 6.28125 3.371094 8.902344 1.589844 12.664062 C 1.433594 12.984375 1.460938 13.363281 1.664062 13.660156 C 1.863281 13.953125 2.207031 14.117188 2.5625 14.085938 C 2.917969 14.054688 3.230469 13.832031 3.378906 13.507812 C 4.058594 12.070312 5.089844 10.832031 6.367188 9.90625 C 6.101562 10.582031 5.953125 11.320312 5.953125 12.09375 C 5.953125 13.757812 6.628906 15.253906 7.71875 16.332031 L 8.761719 14.523438 C 8.246094 13.851562 7.9375 13.011719 7.9375 12.09375 C 7.9375 9.894531 9.707031 8.125 11.90625 8.125 C 12.085938 8.125 12.261719 8.136719 12.4375 8.160156 L 13.53125 6.261719 C 13.113281 6.199219 12.6875 6.164062 12.253906 6.152344 C 12.140625 6.144531 12.023438 6.140625 11.90625 6.140625 Z M 16.542969 7.125 L 15.066406 9.683594 C 15.574219 10.351562 15.875 11.1875 15.875 12.09375 C 15.875 14.292969 14.105469 16.0625 11.90625 16.0625 C 11.734375 16.0625 11.566406 16.054688 11.402344 16.03125 L 10.355469 17.84375 C 10.847656 17.976562 11.371094 18.046875 11.90625 18.046875 C 15.207031 18.046875 17.859375 15.394531 17.859375 12.09375 C 17.859375 11.320312 17.714844 10.582031 17.449219 9.90625 C 18.726562 10.832031 19.757812 12.070312 20.4375 13.507812 C 20.585938 13.832031 20.894531 14.054688 21.25 14.085938 C 21.605469 14.117188 21.949219 13.953125 22.152344 13.660156 C 22.351562 13.363281 22.378906 12.984375 22.222656 12.664062 C 21.058594 10.203125 19.039062 8.230469 16.542969 7.125 Z M 11.25 10.21875 C 10.476562 10.476562 9.921875 11.179688 9.921875 12.015625 L 9.921875 12.175781 C 9.921875 12.277344 9.929688 12.375 9.945312 12.472656 Z M 13.875 11.75 L 12.597656 13.960938 C 13.355469 13.695312 13.890625 12.996094 13.890625 12.175781 L 13.890625 12.015625 C 13.890625 11.925781 13.886719 11.835938 13.875 11.75 Z M 13.875 11.75 "/>
<path style=" stroke:none;fill-rule:nonzero;fill:rgb(25.882354%,25.882354%,25.882354%);fill-opacity:1;" d="M 17.128906 2.5 L 17.625 2.785156 C 17.742188 2.851562 17.78125 3.003906 17.714844 3.125 L 7.046875 21.597656 C 6.980469 21.71875 6.828125 21.757812 6.707031 21.691406 L 6.214844 21.40625 C 6.097656 21.335938 6.054688 21.183594 6.125 21.066406 L 16.792969 2.589844 C 16.859375 2.472656 17.011719 2.429688 17.128906 2.5 Z M 17.128906 2.5 "/>
</g>
</svg>
